X:1
T:Pomp and Circumstance March No. 2
T:Pomp and Circumstance March No. 2
T:Piano Transcription
T:Edward Elgar
T:Arr. by Dekkadeci
C:Edward Elgar
Z:Arr. by Dekkadeci
%%score { ( 1 4 ) | ( 2 3 ) }
L:1/8
Q:1/4=132
M:2/4
K:C
V:1 treble nm="Piano" snm="Pno."
V:4 treble 
V:2 bass 
V:3 bass 
V:1
"^Allegro molto"!ff! A, z/ (A,/8B,/8C/8D/8 !>!E)!>![DA] |!>(! !>!E4!>)! |: %2
S!pp! .[B,EB].B/.B/ .[B,EB]/.A/.G/.B/ | .[CFA].A/.A/ .[CFA]([Gg]/a/ | %4
 .[Bb]).B/.B/ .[B,EB]/.A/.G/.B/ | .[CFA].A/.A/ .[CFA]([Bb]/c'/ | %6
!<(! .[dd']).d/.d/ .[DGd]/.c/.B/.d/ | !^![_E_Ac].c/.c/!<)!!p! .[EAc]!<(!([Bb]/c'/ | %8
 .[dd']).d/.d/ .[DGd]/.c/.B/.d/ | .[EAc].c/.c/ .[EAc]!<)!!mf!([dd']/e'/ | %10
!<(! .[ff']).f/.f/ .[FBf]/.e/.d/.f/ | .[Gce].e/.e/ .[Gce]([^d^d']/e'/ | %12
 .[^f^f']).f/.f/ .[^FBf]/.e/.^d/.f/ | .[Gce].e/.e/ !wedge![Gce]!<)!!ff!(b/4c'/4d'/4e'/4 | %14
 .[^f^f']/).e'/.d'/.e'/ .[dd']/.c'/.[Bb]/.c'/ | .[Bb]/.a/.g/.a/ .[Gg]/.^f/.e/.f/ | %16
 !>![Dd]3/2 z/ !>![A,E]3/2 z/ |1"^Skip this ending\nafter D.S." !>![B,G]3/2 z/ z2 :|2 %18
 !>![B,G]3/2 z/ z z/!f! E/ || !>!B4- | B7/2 E/ | !>!B4- | B3 !>!B, | (B4- | (3BAB) (3(cBA) | d4- | %26
 (3d(de (3^fed) |!p! g4- | g^f!ff!!>(! (ag)!>)! |!mf! (A3 B) | (c3 d) | %31
!f! .[Ece].[Geg] (!>![^Fd^f]>[ce]) | .[DBd]!>![Gg] ([Dd]>c) |!<(! (B>c) (B>c)!<)! | %34
!ff! ([^FB]/^c/4^d/4e/4^f/4g/4a/4) [^dfb] z/!f! E/ | !>!B4- | B7/2 E/ | !>!B4- | B3 !>!B, | %39
 (!>!B4- | (3BAB) (3(cBA) | d4- | (3d(de (3^fed) |!p! g4- | g^f!ff!!>(! (ag)!>)! |!mf! (A3 B) | %46
 (c3 d) |!f!{/e} (3CE[G,G] [Cc][Ee] | BE BE | %49
[K:bass]!<(! (3[C,E,G,C][E,E][G,G][K:treble] [Cc][Ee] | BE BE | %51
[K:bass] (3[C,E,G,C][E,E][G,G][K:treble] [Cc]!<)!!ff![Ee] | BE BE | %53
"^trem."!<(! !///-![be']3/2 e3/2 z | !///-![be']3/2 e3/2!fff! z!<)! |!ff!!<(! z4 | z4!<)! || %57
!fff! A, z/ (A,/8B,/8C/8D/8 !>!E)!>![DA] |!>(! !>!E4!>)! || %59
!pp!{/B,-} .[B,EB].B/.B/{/B,-} .[B,EB]/.A/.G/.B/ |{/C-} .[CFA].A/.A/{/C-} .[CFA]([Gg]/a/ | %61
 .[Bb]).B/.B/{/B,-} .[B,EB]/.A/.G/.B/ |{/C-} .[CFA].A/.A/{/C-} .[CFA]([Bb]/c'/ | %63
!<(! .[dd']).d/.d/{/D-} .[DGd]/.c/.B/.d/ |{/_E-} !^![E_Ac].c/.c/!<)!!p!{/E-} .[EAc]!<(!([Bb]/c'/ | %65
 .[dd']).d/.d/{/D-} .[DGd]/.c/.B/.d/ |{/E-} .[EAc].c/.c/{/E-} .[EAc]!<)!!mf!([dd']/e'/ | %67
!<(! .[ff']).f/.f/ .[FABf]/.e/.d/.f/ | .[E^GBe].[Be]/.[Be]/ .[EGBe]([dd']/e'/!<)! | %69
!f! .[ff'])!<(!.f/.f/ .[FBf]/.e/.d/.f/ | .[EGce].[ce]/.[ce]/ .[EGce] z/!<)!!ff! (c'/8d'/8e'/8f'/8 | %71
 [gg']/)!tenuto!f'/!tenuto!e'/!tenuto!f'/ !tenuto![ee']/!tenuto!d'/!tenuto![cc']/!tenuto!d'/ | %72
 !tenuto![cc']/!tenuto!b/!tenuto!a/!tenuto!b/ !tenuto![Aa]/!tenuto!g/!tenuto!f/!tenuto!g/ | %73
 !>![Ece]2 z2 | !>![FBf]2 z2 ||[K:A] !>![cea] z z2 | !>!E4- | E2 z2 | !>!E4- | E2!>(! z2 | !>!E4- | %81
 E2!>)!!p! z2 | !>!E4 || .[ce]2 .[ce]2 | ([fa]2 [eg]>)[df] | .[ce]2 .[ce]2 | ([Ac]2 [Bd]>)[ce] | %87
 .[Bd]2 .[Bd]2 | ([GB]2 [Ac]>)[Bd] | .[Ac]2 .[Ac]2 | ([Bd]2 [Ac]>)[GB] |!<(! .[ce]2 .[ce]2 | %92
 ([fa]2 [eg]>)[df] | .[ce]2 .[ce]2 | ([Ac]2 [B^d]>)[Ge] | [F^d]2 [Fd]2 | ([^DB]2 [Ec][F^d] | %97
 [EBe]2)!<)!!mf! ([Be]2 | [Aca]2 [G^dg][FBf] |!<(! [Beb]2) ([Be-b]2 | [cec']2 [B^db][ABa])!<)! | %101
!f! (e'2 [cc'][Bb]) | ([Aa]2 [Gg][Ff]) |!<(! (e2 cB) | (A2 GF)!<)! | %105
!ff!"_marcato" !tenuto!E2 !tenuto!C!tenuto!B, |[K:bass] !tenuto!A,2 !tenuto!G,!tenuto!F, | %107
 .E,2!>(! (!>!E2- | (3EDC) (3(B,CD)!>)! |[K:treble]!p! .[cec'e']2 .[cec'e']2 | %110
!8va(! ([faf'a']2 [ege'g']>)[dfd'f']!8va)! | .[cec'e']2 .[cec'e']2 | ([Acac']2 [Bdbd']>)[cec'e'] | %113
 .[Bdbd']2 .[Bdbd']2 | ([GBgb]2 [Acac']>)[Bdbd'] | .[Acac']2 .[Acac']2 | %116
 ([Bdbd']2 [Acac']>)[GBgb] |!<(! .[cec'e']2 .[cec'e']2 | %118
!8va(! ([faf'a']2 [ege'g']>)[dfd'f']!8va)! | .[cec'e']2 .[cec'e']2 | ([Acac']2 [B^db^d']>)[ege'] | %121
 [^df^d']2 [dfd']2 | ([B^db]2 [cec'][df^d'] | [ee']2)!<)!!mf! ([Be]2 | [Aca]2 [G^dg][FBf] | %125
!<(! [Beb]2) ([Be-b]2 | [cec']2 [B^db][ABa])!<)! |!f! (e'2 [cc'][Bb]) | ([Aa]2 [Gg][Ff]) | %129
 (e2!>(! cB) | (A2 GF)!>)! ||[K:C]!p! .[Ee].e/.e/ .[Ee]/.d/.c/.d/ | %132
 .[Cc].[^Fc]/.c/ .[Cc]([cc']/d'/ | .[ee']).e/.e/ .[Ee]/.d/.c/.d/ | %134
!<(! .[Cc].[^Fc]/.c/ .[Cc]([cc']/d'/ | .[ee']).e/.e/ .[Ee]/.d/([cc']/d'/ | %136
 .[ee']).e/.e/ .[Ee]/.d/.c/.d/!<)! |!ff!!8va(! .[e'b'e''] z .[c'e'a'] z | %138
 .[e'b'e''] z .[c'e'a'] z | .[e'b'e''] z .[c'e'a'] z | .[e'b'e''] z .[c'e'a'] z | %141
 .[b'e''] z .[e'a'] z!8va)! | .e' z .[ea] z | .[Be] z .[EA] z | .[B,E] z .A, z | %145
[K:bass] (E,/F,/^F,/G,/)!<(! (^G,/A,/^A,/B,/) | (C/^C/D/^D/) (E/F/=D/B,/)!<)!!dacoda! || %147
[K:treble]!fff! A, z/ (A,/8B,/8C/8D/8 !>!E)!>![DA] |!>(! !>!E4!>)!!D.S.! || %149
O!ff! !^!A,7/2 (A,/8B,/8C/8D/8 | !^!E7/2) (D/8E/8F/8G/8 | !^!A7/2) (E/8F/8G/8A/8 | %152
 !^!B7/2) (F/8G/8A/8B/8 | !^![Fc]7/2) (G/8A/8B/8c/8 | !^![DAd]7/2) (A/8B/8c/8d/8 | !^![EBe]4) | %156
!mf! z4 |!f!!<(! !trill(!TE2 !trill(!TE2 | !trill(!TE2 !trill(!TE2!<)! |!ff! .[Aca].A, z2 | %160
 !tenuto![A,CEA]2 z z/ A,/ | !fermata!A,4 |] %162
V:2
!8vb(! [A,,,A,,]!8vb)! z !>![G,B,]!>![F,A,] | !>![G,B,]4 |:!8vb(! .[G,,,G,,] z .[G,,,G,,] z | %3
 .[A,,,A,,] z .[A,,,A,,] z | .[G,,,G,,] z .[G,,,G,,] z | .[A,,,A,,] z .[A,,,A,,] z!8vb)! | %6
{/D,} .[B,,,B,,] z{/D,} .[B,,,B,,] z |{/_E,} !^![C,,C,] z{/E,} .[C,,C,] z | %8
{/D,} .[B,,,B,,] z{/D,} .[B,,,B,,] z |{/E,} .[C,,C,] z{/E,} .[C,,C,] z | %10
{/F,} .[D,,D,] z{/F,} .[D,,D,] z |{/G,} .[E,,E,] z{/G,} .[E,,E,] z | %12
{/^F,} !tenuto![^D,,^D,] z{/F,} .[D,,D,] z |{/G,} .[E,,E,] z{/G,} .[E,,E,] z | %14
 !>![D,B,^F]!>![E,G,G] !>![^F,DA]!>![G,B,] | !>!B,!>!C !>!D.^G,/.A,/ | %16
 !>![D,B,]3/2 z/ !>![C,^F,]3/2 z/ |1 !>![G,,D,G,]3/2 z/ z2 :|2 !>![G,,D,G,]3/2 z/ z2 || %19
 !>![E,B,]2 !>![D,B,]2 | !>![^F,B,]2 !>![E,B,]2 | !>![D,B,]2 !>![C,B,]2 | !>![E,B,]2 !>![D,B,]2 | %23
 !>![C,B,]2 !>![B,,B,]2 | !>![D,B,]2 !>![C,C]2 | !>![B,,G,]2 !>![A,,A,C]2 | %26
 !>![G,,G,B,]2 !>![^F,,^F,A,]2 | (3(CB,C (3DCB,) | ([D,_B,]2 [^C,A,]2) | (3(E,^D,E, (3F,E,=D,) | %30
 (3(E,^D,E, (3F,E,=D,) | E, z D,2- | D,2 (!>!G,2 | [^D,^F,B,]) z [E,G,B,] z | %34
 [B,,^F,A,B,][K:treble] .B/.B/ .B z |[K:bass] !>![E,B,]2 !>![D,B,]2 | !>![^F,B,]2 !>![E,B,]2 | %37
 !>![D,B,]2 !>![C,B,]2 | !>![E,B,]2 !>![D,B,]2 | !>![C,B,]2 !>![B,,B,]2 | !>![D,B,]2 !>![C,C]2 | %41
 !>![B,,G,]2 !>![A,,A,C]2 | !>![G,,G,B,]2 !>![^F,,^F,A,]2 | (3(CB,C (3DCB,) | ([D,_B,]2 [^C,A,]2) | %45
 (3(E,^D,E,) (3(F,E,=D,) | (3(E,^D,E,) (3(F,E,=D,) | [G,,C,E,G,] G,,2 G,,- | G,, G,,2 G,,- | %49
 G,, G,,2 G,,- | G,, G,,2 G,,- | G,,/G,,G,,/- G,,/G,,G,,/- | G,,/G,,G,,/- G,,/G,,G,,/ | %53
[K:treble] [B,B][E,E] [B,B][E,E] | [B,B][E,E] [B,B][E,E] |[K:bass]"_trem." !///-!B,,2 E,,2 | %56
 !///-!B,,2 E,,2 ||!8vb(! [A,,,A,,]!8vb)! z !>![G,B,]!>![F,A,] | !>![G,B,]4 || %59
!8vb(!{/B,,} .[G,,,G,,] z{/B,,} .[G,,,G,,] z |{C,} .[A,,,A,,] z{C,} .[A,,,A,,] z | %61
{/B,,} .[G,,,G,,] z{/B,,} .[G,,,G,,] z |{C,} .[A,,,A,,] z{C,} .[A,,,A,,] z!8vb)! | %63
{/D,} .[B,,,B,,] z{/D,} .[B,,,B,,] z |{/_E,} !^![C,,C,] z{/E,} .[C,,C,] z | %65
{/D,} .[B,,,B,,] z{/D,} .[B,,,B,,] z |{/E,} .[C,,C,] z{/E,} .[C,,C,] z | %67
{/F,} .[D,,D,] z{/F,} .[D,,D,] z | .[E,,E,] z .[E,,E,] z | .[D,,D,] z .[D,,D,] z | %70
 .[E,,E,] z .[E,,E,] z |[K:treble] !>![E,CG]!>![F,A,A] !>![G,EB]!>![A,C] | %72
[K:bass] !>!C!>!D !>!E.^A,/.B,/ | !>![E,C]2 E,2 | !>![D,F,B,]2 A,,2 || %75
[K:A] !>![A,,E,A,C] z (!>![A,,A,]2- | (3[A,,A,][G,,G,][F,,F,]) (3([E,,E,][F,,F,][G,,G,] | %77
 [A,,A,]) z (!>![A,,A,]2- | (3[A,,A,][G,,G,][F,,F,]) (3([E,,E,][F,,F,][G,,G,] | %79
 [A,,A,]) z (!>![A,,A,]2- | (3[A,,A,][G,,G,][F,,F,] (3[E,,E,][F,,F,][G,,G,]) | %81
 .[A,,A,] z (!>![A,,A,]2- | (3[A,,A,][G,,G,][F,,F,] (3[E,,E,][F,,F,][G,,G,]) || %83
 .[A,,A,] z (!>![A,,A,]2- | (3[A,,A,][G,,G,][F,,F,] (3[E,,E,][F,,F,][G,,G,]) | %85
 .[A,,A,] z (!>![A,,A,]2- | (3[A,,A,][G,,G,][F,,F,] (3[E,,E,][F,,F,][G,,G,]) | %87
 .[A,,A,] z (!>![A,,A,]2- | (3[A,,A,][G,,G,][F,,F,] (3[E,,E,][F,,F,][G,,G,]) | %89
 .[A,,A,] z (!>![A,,A,]2- | (3[A,,A,][G,,G,][F,,F,] (3[E,,E,][F,,F,][G,,G,]) | %91
 .[A,,A,] z (!>![A,,A,]2- | (3[A,,A,][G,,G,][F,,F,] (3[E,,E,][F,,F,][G,,G,]) | %93
 .[A,,A,] z (!>![A,,A,]2- | (3[A,,A,][G,,G,][F,,F,] (3[E,,E,][F,,F,][G,,G,]) | %95
 .[A,,A,] z !>![A,,A,]2- | (3[A,,A,]([A,,A,][G,,G,] (3[F,,F,][G,,G,][A,,A,]) | %97
 [G,,G,B,] z (!>![G,E-]2 | (3E^DC) (3(B,CD) | E z (!>!E2- | (3E^DC) (3(B,CD) | [G,E]2 [A,,A,C]2 | %102
 ([F,,F,]2 [B,,B,-]2) | ([G,,E,B,]2 [A,,E,-A,]2) | ([F,,E,F,]2 [B,,^D,B,]2) | %105
 !tenuto![E,,E,]2 !tenuto![C,,C,]!tenuto![B,,,B,,] | %106
!8vb(! !tenuto![A,,,A,,]2 !tenuto![G,,,G,,]!tenuto![F,,,F,,] | .[E,,,E,,]2 .[F,,,F,,]2 | %108
 .[=G,,,=G,,]2 .[^G,,,^G,,]2 | [A,,,A,,]!8vb)! z (!>![A,,A,]2- | %110
 (3[A,,A,][G,,G,][F,,F,] (3[E,,E,][F,,F,][G,,G,]) | .[A,,A,] z (!>![A,,A,]2- | %112
 (3[A,,A,][G,,G,][F,,F,] (3[E,,E,][F,,F,][G,,G,]) | .[A,,A,] z (!>![A,,A,]2- | %114
 (3[A,,A,][G,,G,][F,,F,] (3[E,,E,][F,,F,][G,,G,]) | .[A,,A,] z (!>![A,,A,]2- | %116
 (3[A,,A,][G,,G,][F,,F,] (3[E,,E,][F,,F,][G,,G,]) | .[A,,A,] z (!>![A,,A,]2- | %118
 (3[A,,A,][G,,G,][F,,F,] (3[E,,E,][F,,F,][G,,G,]) | .[A,,A,] z (!>![A,,A,]2- | %120
 (3[A,,A,][G,,G,][F,,F,] (3[E,,E,][F,,F,][G,,G,]) | .[A,,A,] z !>![A,,A,]2- | %122
 (3[A,,A,]([A,,A,][G,,G,] (3[F,,F,][G,,G,][A,,A,]) | [G,,G,B,] z (!>![G,E-]2 | (3E^DC) (3(B,CD) | %125
 E z (!>!E2- | (3E^DC) (3(B,CD) | [G,E]2 [A,,A,C]2 | [F,,F,]2 [B,,B,-]2 | ([G,,E,B,]2 [A,,E,-A,]2 | %130
 [F,,E,F,]2 [B,,^D,B,]2) ||[K:C]"_marcato" !tenuto![E,,E,]2 !tenuto![F,,F,]2 | !^![^F,,^F,]4 | %133
 !tenuto![G,,G,]2 !tenuto![^G,,^G,]2 | !^![A,,A,]4 | [^A,,^A,]2 [B,,B,]2 | %136
 !tenuto![C,C]!tenuto![^C,^C] !tenuto![D,D]!tenuto![^D,^D] | [E,E].E[K:treble] .[ce].E | %138
 .e.E .[ce].E | .e.E .[ce].E | .e.E .[ce].E | !>!e'/!tenuto!f'/!tenuto!e'/!tenuto!d'/ c'/b/a/f/ | %142
 !>!e/!tenuto!f/!tenuto!e/!tenuto!d/ c/B/A/F/ |[K:bass] !>!E/F/E/D/ C/B,/A,/F,/ | %144
 !>!E,/F,/E,/D,/ C,/B,,/A,,/F,,/ | %145
!8vb(! (!>![E,,,E,,][^F,,,^F,,]) (!>![^G,,,^G,,][A,,,A,,])!8vb)! | %146
 (!>![B,,,B,,][C,,C,]) (!>![D,,D,][E,,E,]) ||!8vb(! [A,,,A,,]!8vb)! z !>![G,B,]!>![F,A,] | %148
 !>![G,B,]4 || A,,2 z2 | !^![G,B,]4 | !^![F,A,D]4 | !^![E,G,B,E]4 | !^![D,F,A,C]4 | !^![C,F,A,]4 | %155
 !^![B,,E,^G,]4 | !trill(!TE,4 | !trill(!TE,2 !trill(!TE,2 | !trill(!TE,2 !trill(!TE,2 | %159
 .[A,,E,A,C]!8vb(!.[A,,,A,,] z2 | z2 z z/ [A,,,A,,]/ | %161
"_trem." !////-!!fermata!A,,,2 !fermata!A,,2!8vb)! |] %162
V:3
!8vb(! x!8vb)! x3 | x4 |:!8vb(! x4 | x4 | x4 | x4!8vb)! | x4 | x4 | x4 | x4 | x4 | x4 | x4 | x4 | %14
 x4 | !>!G,,!>!A,, !>!B,,!>!C, | x4 |1 x4 :|2 x4 || x4 | x4 | x4 | x4 | x4 | x4 | x4 | x4 | %27
{/E,,} E,4 | x4 | .C,2 .B,,2 | (A,,3 B,,) | C, z (A,,2 | B,,) z E,2 | x4 | x[K:treble] x3 | %35
[K:bass] x4 | x4 | x4 | x4 | x4 | x4 | x4 | x4 |{/E,,} E,4 | x4 | .C,2 .B,,2 | .A,,2 ._A,,2 | x4 | %48
 B,E, B,E, | x4 | B,E, B,E, | x4 | B,E, B,E, |[K:treble] x4 | x4 |[K:bass] x4 | x4 || %57
!8vb(! x!8vb)! x3 | x4 ||!8vb(! x4 | x4 | x4 | x4!8vb)! | x4 | x4 | x4 | x4 | x4 | x4 | x4 | x4 | %71
[K:treble] x4 |[K:bass] !>!A,,!>!B,, !>!C,!>!D, | x4 | x4 ||[K:A] x4 | x4 | x4 | x4 | x4 | x4 | %81
 x4 | x4 || x4 | x4 | x4 | x4 | x4 | x4 | x4 | x4 | x4 | x4 | x4 | x4 | x4 | x4 | x4 | F,2 B,,2 | %99
 G,2 G,2 | F,2 B,,2 | E,4- | E,2 ^D,2 | x4 | x4 | x4 |!8vb(! x4 | x4 | x4 | x!8vb)! x3 | x4 | x4 | %112
 x4 | x4 | x4 | x4 | x4 | x4 | x4 | x4 | x4 | x4 | x4 | x4 | F,2 B,,2 | G,2 G,2 | F,2 B,,2 | E,4- | %128
 E,2 ^D,2 | x4 | x4 ||[K:C] x4 | x4 | x4 | x4 | x4 | x4 | x2[K:treble] x2 | x4 | x4 | x4 | x4 | %142
 x4 |[K:bass] x4 | x4 |!8vb(! x4!8vb)! | x4 ||!8vb(! x!8vb)! x3 | x4 || x4 | x4 | x4 | x4 | x4 | %154
 x4 | x4 | x4 | x4 | x4 | x!8vb(! x3 | x4 | x4!8vb)! |] %162
V:4
 x4 | x4 |: x4 | x4 | x4 | x4 | x4 | x4 | x4 | x4 | x4 | x4 | x4 | x4 | x4 | x4 | x4 |1 x4 :|2 %18
 x4 || !>!G2 !>!^F2 | !>!A2 !>!G2 | !>!^F2 !>!E2 | !>!G2 !>!^F2 | !>!E2 !>!D2 | !>!^F2 !>!E2 | %25
 !>![DG]2 !>![Dc]2 | !>![DB]2 !>![DA]2 | (3(c!<(!Bc (3dcB) | _B2!<)! AE | (3(E!<(!^DE (3FE=D) | %30
 (3(E^DE (3FE=D)!<)! | x4 | x2 G2 | A z G z | x4 | !>!G2 !>!^F2 | !>!A2 !>!G2 | !>!^F2 !>!E2 | %38
 !>!G2 !>!^F2 | !>!E2 !>!D2 | !>!^F2 !>!E2 | !>![DG]2 !>![Dc]2 | !>![DB]2 !>![DA]2 | %43
 (3(c!<(!Bc (3dcB) | _B2!<)! AE | (3(E!<(!^DE) (3(FE=D) | (3(E^DE) (3(FE=D)!<)! | x4 | x4 | %49
[K:bass] x2[K:treble] x2 | x4 |[K:bass] x2[K:treble] x2 | x4 | x4 | x4 | x4 | x4 || x4 | x4 || x4 | %60
 x4 | x4 | x4 | x4 | x4 | x4 | x4 | x4 | x4 | x4 | x4 | x4 | x4 | x4 | x4 ||[K:A] x4 | x4 | x4 | %78
 x4 | x4 | x4 | x4 | x4 || x4 | x4 | x4 | x4 | x4 | x4 | x4 | x4 | x4 | x4 | x4 | x4 | x4 | x4 | %97
 x4 | x4 | x4 | x4 | e2 e2- | e2 ^d2 | E2 [CE]2- | [CE]2 ^D2 | x4 |[K:bass] x4 | z2 E,2- | E,4 | %109
[K:treble] x4 |!8va(! x4!8va)! | x4 | x4 | x4 | x4 | x4 | x4 | x4 |!8va(! x4!8va)! | x4 | x4 | x4 | %122
 x4 | x4 | x4 | x4 | x4 | e2 e2- | e2 ^d2 | E2 [CE]2- | [CE]2 ^D2 ||[K:C] x4 | x4 | x4 | x4 | x4 | %136
 x4 |!8va(! x4 | x4 | x4 | x4 | x4!8va)! | x4 | x4 | x4 |[K:bass] x4 | x4 ||[K:treble] x4 | x4 || %149
 x4 | x4 | x4 | x4 | x4 | x4 | x4 | x4 | x4 | x4 | x4 | x4 | x4 |] %162

